X:65
T: Long Campaign (The)
S: John Whelan
Z: B. Black
R: reel
M: 4/4
L: 1/8
K: Dmix
DFAd cAGF | FGAB (3cBA d2 | DFAd cAGF | =FDDF ECCE |
DFAd cAGF | FGAB cAdf | a3 g efge | agec ed d2 :|
Addc ABcA | fgaf ge^ce | Addc ABcA | G2 GF EFGE |
Addc ABcA | fgaf ge^ce | a3 g efge | age^c ed d2 :|
